_inc/systems/megadrive-art.svg

<svg xmlns="http://www.w3.org/2000/svg" viewBox="0 0 600 400"><defs><style>.cls-1{fill:#323232;}.cls-2{fill:#4b4b4b;}</style></defs><g id="Ebene_2" data-name="Ebene 2"><g id="Ebene_4" data-name="Ebene 4"><polygon class="cls-1" points="590 190 590 160 570 160 570 140 560 140 560 130 550 130 550 120 530 120 530 110 510 110 510 100 490 100 490 90 470 90 470 80 440 80 440 70 400 70 400 60 340 60 340 50 330 50 330 30 320 30 320 20 310 20 310 0 300 0 290 0 290 20 280 20 280 30 270 30 270 50 260 50 260 60 200 60 200 70 160 70 160 80 130 80 130 90 110 90 110 100 90 100 90 110 70 110 70 120 50 120 50 130 40 130 40 140 30 140 30 160 10 160 10 190 0 190 0 270 10 270 10 310 30 310 30 320 30 340 40 340 40 350 50 350 50 360 60 360 60 370 70 370 70 380 80 380 80 390 100 390 100 400 140 400 140 390 160 390 160 380 170 380 170 360 180 360 180 340 190 340 190 330 200 330 200 320 220 320 220 310 260 310 260 300 290 300 300 300 310 300 340 300 340 310 380 310 380 320 400 320 400 330 410 330 410 340 420 340 420 360 430 360 430 380 440 380 440 390 460 390 460 400 500 400 500 390 520 390 520 380 530 380 530 370 540 370 540 360 550 360 550 350 560 350 560 340 570 340 570 320 570 310 590 310 590 270 600 270 600 190 590 190"/><path class="cls-2" d="M180,190V180H170V170H160V160H110v10H100v10H90v10H80v50H90v10h10v10h10v10h50V260h10V250h10V240h10V190Zm0,40H150v30H120V230H90V200h30V170h30v30h30Z"/><polygon class="cls-2" points="330 210 330 190 260 190 260 220 330 220 340 220 340 210 330 210"/><rect class="cls-2" x="250" y="80" width="90" height="10"/><rect class="cls-2" x="340" y="90" width="40" height="10"/><rect class="cls-2" x="210" y="90" width="40" height="10"/><path class="cls-2" d="M410,150H390V140h20Zm10-20H400v10h20Zm10-10H410v10h20Zm10-10H420v10h20Z"/><path class="cls-2" d="M420,250V240H410V230H390v10H380v10H370v20h10v10h10v10h20V280h10V270h10V250Zm-10,20H390V250h20Z"/><path class="cls-2" d="M480,210V200H470V190H450v10H440v10H430v20h10v10h10v10h20V240h10V230h10V210Zm-10,20H450V210h20Z"/><path class="cls-2" d="M540,170V160H530V150H510v10H500v10H490v20h10v10h10v10h20V200h10V190h10V170Zm-10,20H510V170h20Z"/></g></g></svg>

<?xml version="1.0" encoding="utf-8"?>
<svg viewBox="0 0 600 400" xmlns="http://www.w3.org/2000/svg">
  <polygon points="590 190 590 160 570 160 570 140 560 140 560 130 550 130 550 120 530 120 530 110 510 110 510 100 490 100 490 90 470 90 470 80 440 80 440 70 400 70 400 60 340 60 340 50 330 50 330 30 320 30 320 20 310 20 310 0 300 0 290 0 290 20 280 20 280 30 270 30 270 50 260 50 260 60 200 60 200 70 160 70 160 80 130 80 130 90 110 90 110 100 90 100 90 110 70 110 70 120 50 120 50 130 40 130 40 140 30 140 30 160 10 160 10 190 0 190 0 270 10 270 10 310 30 310 30 320 30 340 40 340 40 350 50 350 50 360 60 360 60 370 70 370 70 380 80 380 80 390 100 390 100 400 140 400 140 390 160 390 160 380 170 380 170 360 180 360 180 340 190 340 190 330 200 330 200 320 220 320 220 310 260 310 260 300 290 300 300 300 310 300 340 300 340 310 380 310 380 320 400 320 400 330 410 330 410 340 420 340 420 360 430 360 430 380 440 380 440 390 460 390 460 400 500 400 500 390 520 390 520 380 530 380 530 370 540 370 540 360 550 360 550 350 560 350 560 340 570 340 570 320 570 310 590 310 590 270 600 270 600 190 590 190" style="fill: rgb(50, 50, 50);"/>
  <g>
    <path d="M 180 190 L 180 180 L 170 180 L 170 170 L 160 170 L 160 160 L 110 160 L 110 170 L 100 170 L 100 180 L 90 180 L 90 190 L 80 190 L 80 240 L 90 240 L 90 250 L 100 250 L 100 260 L 110 260 L 110 270 L 160 270 L 160 260 L 170 260 L 170 250 L 180 250 L 180 240 L 190 240 L 190 190 Z M 180 230 L 150 230 L 150 260 L 120 260 L 120 230 L 90 230 L 90 200 L 120 200 L 120 170 L 150 170 L 150 200 L 180 200 Z" style="fill: rgb(75, 75, 75);"/>
    <polygon points="330 210 330 190 260 190 260 220 330 220 340 220 340 210 330 210" style="fill: rgb(75, 75, 75);"/>
    <rect x="250" y="80" width="90" height="10" style="fill: rgb(75, 75, 75);"/>
    <rect x="340" y="90" width="40" height="10" style="fill: rgb(75, 75, 75);"/>
    <rect x="210" y="90" width="40" height="10" style="fill: rgb(75, 75, 75);"/>
    <path d="M 410 150 L 390 150 L 390 140 L 410 140 Z M 420 130 L 400 130 L 400 140 L 420 140 Z M 430 120 L 410 120 L 410 130 L 430 130 Z M 440 110 L 420 110 L 420 120 L 440 120 Z" style="fill: rgb(75, 75, 75);"/>
    <path d="M 420 250 L 420 240 L 410 240 L 410 230 L 390 230 L 390 240 L 380 240 L 380 250 L 370 250 L 370 270 L 380 270 L 380 280 L 390 280 L 390 290 L 410 290 L 410 280 L 420 280 L 420 270 L 430 270 L 430 250 Z M 410 270 L 390 270 L 390 250 L 410 250 Z" style="fill: rgb(75, 75, 75);"/>
    <path d="M 480 210 L 480 200 L 470 200 L 470 190 L 450 190 L 450 200 L 440 200 L 440 210 L 430 210 L 430 230 L 440 230 L 440 240 L 450 240 L 450 250 L 470 250 L 470 240 L 480 240 L 480 230 L 490 230 L 490 210 Z M 470 230 L 450 230 L 450 210 L 470 210 Z" style="fill: rgb(75, 75, 75);"/>
    <path d="M 540 170 L 540 160 L 530 160 L 530 150 L 510 150 L 510 160 L 500 160 L 500 170 L 490 170 L 490 190 L 500 190 L 500 200 L 510 200 L 510 210 L 530 210 L 530 200 L 540 200 L 540 190 L 550 190 L 550 170 Z M 530 190 L 510 190 L 510 170 L 530 170 Z" style="fill: rgb(75, 75, 75);"/>
  </g>
</svg>
